X: 2
T: Farewell To Ireland
R: reel
M: 4/4
L: 1/8
K: Dmaj
D3 {F}E2D F2A ABA|f2e d2f {a}e2d B2c|{e}d2B A2F {e}G3 {e}G2B|{d}A2G F2D {F}E2D E2A|D3 {F}E2D F2A ABA|f2e d2f {a}e2d B2c|{e}d2B A2F G2{e}G {F}G2B|1 {d}A2G F2D {F}E2D D2A,:|2 {d}A2G F2D {F}E2D D2A|||:d2e f2g {b}a2z {b}a2f|gag f2g e2A {c}B2A|d2e f2g {b}a2f d2f|g2e {g}f2d e2A e2f|d2e f2g a2{b}a {^g}a2f|gag fg e2A B2c|{e}d2B A2F G2{e}G {F}G2B|1 {d}A2G F2D {F}E2D D2A:|2 {d}A2G F2D {F}E2D D2A,||


Tune 4403	Setting 17059

